img/svg/calendar.svg

<?xml version="1.0" encoding="utf-8"?><!DOCTYPE svg PUBLIC "-//W3C//DTD SVG 1.1//EN" "http://www.w3.org/Graphics/SVG/1.1/DTD/svg11.dtd"><svg version="1.1" baseProfile="full" xmlns="http://www.w3.org/2000/svg" xmlns:xlink="http://www.w3.org/1999/xlink" xmlns:ev="http://www.w3.org/2001/xml-events"  height="21px"  width="21px"><path fill="rgb( 255, 102, 0 )" d="M17.76,20.18 C17.76,20.18 3.24000000000001,20.18 3.24000000000001,20.18 C1.904,20.18 0.82000000000005,19.097 0.82000000000005,17.76 C0.82000000000005,17.76 0.82000000000005,5.66 0.82000000000005,5.66 C0.82000000000005,4.324 1.904,3.23999999999999 3.24000000000001,3.23999999999999 C3.24000000000001,3.23999999999999 3.84500000000003,3.23999999999999 3.84500000000003,3.23999999999999 C3.84500000000003,3.23999999999999 3.84500000000003,3.542 3.84500000000003,3.542 C3.84500000000003,4.54300000000001 4.65899999999999,5.358 5.65999999999997,5.358 C5.65999999999997,5.358 5.71000000000004,5.358 5.71000000000004,5.358 C6.71100000000001,5.358 7.52499999999998,4.54300000000001 7.52499999999998,3.542 C7.52499999999998,3.542 7.52499999999998,3.23999999999999 7.52499999999998,3.23999999999999 C7.52499999999998,3.23999999999999 13.223,3.23999999999999 13.223,3.23999999999999 C13.223,3.23999999999999 13.223,3.542 13.223,3.542 C13.223,4.54300000000001 14.037,5.358 15.037,5.358 C15.037,5.358 15.088,5.358 15.088,5.358 C16.0890000000001,5.358 16.903,4.54300000000001 16.903,3.542 C16.903,3.542 16.903,3.23999999999999 16.903,3.23999999999999 C16.903,3.23999999999999 17.76,3.23999999999999 17.76,3.23999999999999 C19.096,3.23999999999999 20.1799999999999,4.324 20.1799999999999,5.66 C20.1799999999999,5.66 20.1799999999999,17.76 20.1799999999999,17.76 C20.1799999999999,19.097 19.096,20.18 17.76,20.18 ZM18.97,8.08 C18.97,8.08 2.02999999999997,8.08 2.02999999999997,8.08 C2.02999999999997,8.08 2.02999999999997,17.76 2.02999999999997,17.76 C2.02999999999997,18.428 2.57299999999998,18.97 3.24000000000001,18.97 C3.24000000000001,18.97 17.76,18.97 17.76,18.97 C18.428,18.97 18.97,18.428 18.97,17.76 C18.97,17.76 18.97,8.08 18.97,8.08 ZM15.34,17.432 C14.519,17.432 13.853,16.767 13.853,15.945 C13.853,15.124 14.519,14.458 15.34,14.458 C16.1609999999999,14.458 16.827,15.124 16.827,15.945 C16.827,16.767 16.1609999999999,17.432 15.34,17.432 ZM15.34,12.592 C14.519,12.592 13.853,11.926 13.853,11.105 C13.853,10.284 14.519,9.61799999999999 15.34,9.61799999999999 C16.1609999999999,9.61799999999999 16.827,10.284 16.827,11.105 C16.827,11.926 16.1609999999999,12.592 15.34,12.592 ZM10.5,17.432 C9.67899999999997,17.432 9.01300000000003,16.767 9.01300000000003,15.945 C9.01300000000003,15.124 9.67899999999997,14.458 10.5,14.458 C11.322,14.458 11.987,15.124 11.987,15.945 C11.987,16.767 11.322,17.432 10.5,17.432 ZM10.5,12.592 C9.67899999999997,12.592 9.01300000000003,11.926 9.01300000000003,11.105 C9.01300000000003,10.284 9.67899999999997,9.61799999999999 10.5,9.61799999999999 C11.322,9.61799999999999 11.987,10.284 11.987,11.105 C11.987,11.926 11.322,12.592 10.5,12.592 ZM5.65999999999997,17.432 C4.83900000000006,17.432 4.173,16.767 4.173,15.945 C4.173,15.124 4.83900000000006,14.458 5.65999999999997,14.458 C6.48199999999997,14.458 7.14700000000005,15.124 7.14700000000005,15.945 C7.14700000000005,16.767 6.48199999999997,17.432 5.65999999999997,17.432 ZM5.65999999999997,12.592 C4.83900000000006,12.592 4.173,11.926 4.173,11.105 C4.173,10.284 4.83900000000006,9.61799999999999 5.65999999999997,9.61799999999999 C6.48199999999997,9.61799999999999 7.14700000000005,10.284 7.14700000000005,11.105 C7.14700000000005,11.926 6.48199999999997,12.592 5.65999999999997,12.592 ZM15.088,4.45 C15.088,4.45 15.037,4.45 15.037,4.45 C14.5359999999999,4.45 14.13,4.044 14.13,3.542 C14.13,3.542 14.13,3.23999999999999 14.13,3.23999999999999 C14.13,3.23999999999999 14.13,1.72799999999999 14.13,1.72799999999999 C14.13,1.226 14.5359999999999,0.81999999999999 15.037,0.81999999999999 C15.037,0.81999999999999 15.088,0.81999999999999 15.088,0.81999999999999 C15.5890000000001,0.81999999999999 15.995,1.226 15.995,1.72799999999999 C15.995,1.72799999999999 15.995,3.23999999999999 15.995,3.23999999999999 C15.995,3.23999999999999 15.995,3.542 15.995,3.542 C15.995,4.044 15.5890000000001,4.45 15.088,4.45 ZM5.71000000000004,4.45 C5.71000000000004,4.45 5.65999999999997,4.45 5.65999999999997,4.45 C5.15899999999999,4.45 4.75300000000004,4.044 4.75300000000004,3.542 C4.75300000000004,3.542 4.75300000000004,3.23999999999999 4.75300000000004,3.23999999999999 C4.75300000000004,3.23999999999999 4.75300000000004,1.72799999999999 4.75300000000004,1.72799999999999 C4.75300000000004,1.226 5.15899999999999,0.81999999999999 5.65999999999997,0.81999999999999 C5.65999999999997,0.81999999999999 5.71000000000004,0.81999999999999 5.71000000000004,0.81999999999999 C6.21199999999999,0.81999999999999 6.61800000000005,1.226 6.61800000000005,1.72799999999999 C6.61800000000005,1.72799999999999 6.61800000000005,3.23999999999999 6.61800000000005,3.23999999999999 C6.61800000000005,3.23999999999999 6.61800000000005,3.542 6.61800000000005,3.542 C6.61800000000005,4.044 6.21199999999999,4.45 5.71000000000004,4.45 Z "/></svg>

<svg baseProfile="full" xmlns="http://www.w3.org/2000/svg" height="21" width="21"><path fill="rgb( 255, 102, 0 )" d="M17.76 20.18h-14.52c-1.336 0-2.42-1.083-2.42-2.42v-12.1c0-1.336 1.084-2.42 2.42-2.42h.605v.302c0 1.001.814 1.816 1.815 1.816h.05c1.001 0 1.815-.815 1.815-1.816v-.302h5.698v.302c0 1.001.814 1.816 1.814 1.816h.051c1.001 0 1.815-.815 1.815-1.816v-.302h.857c1.336 0 2.42 1.084 2.42 2.42v12.1c0 1.337-1.084 2.42-2.42 2.42zm1.21-12.1h-16.94v9.68c0 .668.543 1.21 1.21 1.21h14.52c.668 0 1.21-.542 1.21-1.21v-9.68zm-3.63 9.352c-.821 0-1.487-.665-1.487-1.487 0-.821.666-1.487 1.487-1.487.821 0 1.487.666 1.487 1.487 0 .822-.666 1.487-1.487 1.487zm0-4.84c-.821 0-1.487-.666-1.487-1.487 0-.821.666-1.487 1.487-1.487.821 0 1.487.666 1.487 1.487 0 .821-.666 1.487-1.487 1.487zm-4.84 4.84c-.821 0-1.487-.665-1.487-1.487 0-.821.666-1.487 1.487-1.487.822 0 1.487.666 1.487 1.487 0 .822-.665 1.487-1.487 1.487zm0-4.84c-.821 0-1.487-.666-1.487-1.487 0-.821.666-1.487 1.487-1.487.822 0 1.487.666 1.487 1.487 0 .821-.665 1.487-1.487 1.487zm-4.84 4.84c-.821 0-1.487-.665-1.487-1.487 0-.821.666-1.487 1.487-1.487.822 0 1.487.666 1.487 1.487 0 .822-.665 1.487-1.487 1.487zm0-4.84c-.821 0-1.487-.666-1.487-1.487 0-.821.666-1.487 1.487-1.487.822 0 1.487.666 1.487 1.487 0 .821-.665 1.487-1.487 1.487zm9.428-8.142h-.051c-.501 0-.907-.406-.907-.908v-1.814c0-.502.406-.908.907-.908h.051c.501 0 .907.406.907.908v1.814c0 .502-.406.908-.907.908zm-9.378 0h-.05c-.501 0-.907-.406-.907-.908v-1.814c0-.502.406-.908.907-.908h.05c.502 0 .908.406.908.908v1.814c0 .502-.406.908-.908.908z"/></svg>
